dist/svg/user-managed.svg

<!-- Generated by Trend Micro Style Portal -->
<svg version="1.1" xmlns="http://www.w3.org/2000/svg" width="16" height="16" viewBox="0 0 16 16">
  <title>user-managed</title>
  <path fill="rgb(34,34,34)" d="M7.5 12.7c0.1 0.3 0.2 0.5 0.3 0.8l-0.3 0.5h-4.3c-4 0-1.6-3.5-0.4-4.7 0.982-1.008 2.238-1.744 3.648-2.089l0.052-0.011h0.1v-0.5c-1.193-0.592-1.999-1.802-2-3.2v-0c-0.001-0.031-0.002-0.068-0.002-0.106 0-1.875 1.52-3.394 3.394-3.394 0.003 0 0.005 0 0.008 0h-0c1.923 0.024 3.476 1.577 3.5 3.498l0 0.002c-0.001 1.398-0.807 2.608-1.979 3.191l-0.021 0.009v0.5c0.321 0.099 0.586 0.2 0.843 0.318l-0.043-0.018v0.1c-0.306 0.010-0.583 0.122-0.802 0.302l0.002-0.002-1.2-0.9-1.3 1.3 0.9 1.2c-0.164 0.23-0.3 0.495-0.394 0.779l-0.006 0.021-1.5 0.3v1.8zM14.7 12.2c-0.066 0.425-0.244 0.799-0.503 1.103l0.003-0.003 0.7 1.1-0.6 0.6-1.1-0.7c-0.316 0.214-0.682 0.386-1.074 0.494l-0.026 0.006-0.2 1.2h-0.8l-0.2-1.3c-0.425-0.066-0.799-0.244-1.103-0.503l0.003 0.003-1.1 0.7-0.6-0.6 0.7-1.1c-0.214-0.316-0.386-0.682-0.494-1.074l-0.006-0.026-1.3-0.2v-0.8l1.3-0.2c0.066-0.425 0.244-0.799 0.503-1.103l-0.003 0.003-0.7-1.2 0.6-0.6 1.1 0.7c0.316-0.214 0.682-0.386 1.074-0.494l0.026-0.006 0.2-1.2h0.8l0.2 1.3c0.425 0.066 0.799 0.244 1.103 0.503l-0.003-0.003 1.1-0.7 0.6 0.6-0.7 1.1c0.214 0.316 0.386 0.682 0.494 1.074l0.006 0.026 1.3 0.2v0.8zM13.1 11.5c0-0.884-0.716-1.6-1.6-1.6s-1.6 0.716-1.6 1.6c0 0.884 0.716 1.6 1.6 1.6v0c0.006 0 0.013 0 0.021 0 0.872 0 1.58-0.707 1.58-1.58 0-0.007-0-0.014-0-0.022l0 0.001z"></path>
</svg>

<svg width="16" height="16" viewBox="0 0 16 16" fill="rgb(34, 34, 34)" xmlns="http://www.w3.org/2000/svg"><title>user-managed</title><path d="M7.5 12.7C7.6 13 7.7 13.2 7.8 13.5L7.5 14H3.2C-0.799999 14 1.6 10.5 2.8 9.3C3.782 8.292 5.038 7.556 6.448 7.211L6.5 7.2H6.6V6.7C5.407 6.108 4.601 4.898 4.6 3.5C4.599 3.469 4.598 3.432 4.598 3.394C4.598 1.519 6.118 0 7.992 0C7.995 0 7.997 0 8 0C9.923 0.024 11.476 1.577 11.5 3.498V3.5C11.499 4.898 10.693 6.108 9.521 6.691L9.5 6.7V7.2C9.821 7.299 10.086 7.4 10.343 7.518L10.3 7.5V7.6C9.994 7.61 9.717 7.722 9.498 7.902L9.5 7.9L8.3 7L7 8.3L7.9 9.5C7.736 9.73 7.6 9.995 7.506 10.279L7.5 10.3L6 10.6V12.4L7.5 12.7ZM14.7 12.2C14.634 12.625 14.456 12.999 14.197 13.303L14.2 13.3L14.9 14.4L14.3 15L13.2 14.3C12.884 14.514 12.518 14.686 12.126 14.794L12.1 14.8L11.9 16H11.1L10.9 14.7C10.475 14.634 10.101 14.456 9.797 14.197L9.8 14.2L8.7 14.9L8.1 14.3L8.8 13.2C8.586 12.884 8.414 12.518 8.306 12.126L8.3 12.1L7 11.9V11.1L8.3 10.9C8.366 10.475 8.544 10.101 8.803 9.797L8.8 9.8L8.1 8.6L8.7 8L9.8 8.7C10.116 8.486 10.482 8.314 10.874 8.206L10.9 8.2L11.1 7H11.9L12.1 8.3C12.525 8.366 12.899 8.544 13.203 8.803L13.2 8.8L14.3 8.1L14.9 8.7L14.2 9.8C14.414 10.116 14.586 10.482 14.694 10.874L14.7 10.9L16 11.1V11.9L14.7 12.2ZM13.1 11.5C13.1 10.616 12.384 9.9 11.5 9.9C10.616 9.9 9.9 10.616 9.9 11.5C9.9 12.384 10.616 13.1 11.5 13.1C11.506 13.1 11.513 13.1 11.521 13.1C12.393 13.1 13.101 12.393 13.101 11.52C13.101 11.513 13.101 11.506 13.101 11.498L13.1 11.5Z" fill="rgb(34, 34, 34)" fill-opacity="1.00"/></svg>
